X:366
T: "Gunhilde"
N: Z1046
O: Europa, Mitteleuropa, Deutschland, Niederrhein
N: Modulation
R: Romanze, Ballade
M: 2/4
L: 1/16
K: G
D2 | B3BA3A | G2GGF2
D2 | G2G2A2A2 | B4z2
B2 | B2cBB2e2 | e2dcB2
A2 | G2FEF2G2 | E4z2
B2 | B2cBB2e2 | e2dcB2
A2 | G2FEF2G2 | E4z2

